X:1
T:Title
%%score { ( 1 3 ) | ( 2 4 ) }
L:1/8
Q:1/4=100
M:4/4
K:Bb
V:1 treble nm="Grand Piano"
V:3 treble 
V:2 bass 
V:4 bass 
V:1
 [B,D]>[CE] [DF]>[EG] [DF]2 [Fd]2 | d>c F>c [DB]4 | [GB]>[GB] [FA]>[EG] [DF]2 [Fd]2 | z4 c4 | %4
w: Ira~B.~Wilson * * * * *||||
 [^Fd]>[Fe] [Fd]>[FA] [Ac]2 [GB]2 | z4 [Ge]4 | d>F B>d [Af]2 [EFA]2 | [DFB]6 z2 | e4 z4 | %9
w: |||||
 c2 z2[K:bass] F4 | [EG]2 [EF]2 [Ec]2 [EG]2 | G2 z2 d4 | e4 z4 | c2 z2 G4 | %14
w: |||||
 B>A [CGB]2 [F,DF]2 A>B | [Fd]2 [EFc]2 [DFB]4 |] %16
w: ||
V:2
 [B,,F,]>[B,,F,] [B,,B,]>[B,,B,] [B,,B,]2 [B,,B,]2 | [F,B,F]>[F,A,E] [F,A,E]>[F,A,E] [B,,B,]4 | %2
 [E,B,]>[E,B,] [E,B,]>[E,B,] [B,,B,]2 [B,,B,]2 | z4 [F,F]2 z2 | %4
 [D,A,]>[D,A,] [D,A,]>[D,D] [G,D]2 [G,D]2 | z4 C2 z2 | [F,B,F]>F, B,>D [F,C]2 F,2 | B,,6 z2 | %8
 [C,F,]2 z A [A,,F,]2 [F,,F,]2 | [B,,F,]2 z z/ G/ B,,2 F,,2 | [A,,F,]2 [F,,F,]2 [A,,F,]2 [F,,F,]2 | %11
 [B,,F,]2 [F,,F,]2 [B,,F,]2 [F,,F,]2 | [C,F,]2 z A [A,,F,]2 [F,,F,]2 | %13
 z2[K:treble] [G,=B,]2[K:bass] z4 | [=E,,=E,]2 z z/ G/ z z/ G/ [F,,F,]2 | %15
 [F,,F,]2 [F,,F,]2 [B,,F,]4 |] %16
V:3
 x8 | x8 | x8 | [=Ed]>[Ec] [EG]>[Ed] z2 G2 | x8 | [G=B]>[GB] [Gc]>[Gd] z2 G,2 | x8 | x8 | %8
 [EF]2 [F,EF]2 [EFd]2 [EFc]2 | [DF]->[DFB] [DFA]2[K:bass] [F,D]2 [F,D]2 | x8 | %11
 D->[DF] [_D=E]>[=DF] [DF]2 [DF]2 | [EF]2 [F,EF]2 [EFd]2 [EFc]2 | D->[DB] e>d [CE]2 [G,E]2 | %14
 [CG]2 z2 z2 [DF]2 | x8 |] %16
V:4
 x8 | x8 | x8 | [C,B,]>[C,B,] [C,B,]>[C,B,] A,2- [E,A,]2 | x8 | [G,D]>[F,D] [E,C]>[D,=B,] C,4 | %6
 x8 | x8 | z2 F,,2 z4 | z2 [F,,F,]2 z4 | x8 | x8 | z2 F,,2 z4 | %13
 [B,,F,]2[K:treble] G>F[K:bass] C,2 C,2 | z2 [=E,,=E,]2 F,,2 z2 | x8 |] %16

